X:1
T:The Brisk Young Farmer
M:3/4
L:1/8
K:C
 G/2G/2 cc| e3 dc c| A G2 GA c| c3 A G2-| G3 G c/2c/2 c| e3 e/2d/2 c|\
 c/2c/2| A G2 GA c| c3 cA G| G3||
